!!!OTL: BEI WATERLOO WAR DIE GROSSE SCHLACHT
!!!ARE: Europa, Mitteleuropa, Deutschland, Lahngebiet, Unter - Taunus
!!!SCT: E0358B
!!!YEM: Copyright 1995, estate of Helmut Schaffrath.
**kern
*ICvox
*Ivox
*M4/4
*k[b-]
*F:
{4c
=1
4f
4a
4g
4cc
=2
4a
8a
8g
4f}
{4g
=3
4a
4cc
4b-
4dd
=4
4cc
8cc
8b-
4a}
{4cc
=5
4.dd
8cc
4b-
4cc
=6
2a
4r}
{8f
8a
=7
4cc
4ff
4.dd
8cc
=8
8dd
8cc
8b-
8a
4g}
{8g
8a
=9
4b-
8b-
8b-
8b-
8dd
8cc
8b-
=10
4a
4g
4f
8r}
{8g
=11
4a
4cc
2g
=12
2f
4r}
{8f
8a
=13
4cc
4ff
4.dd
8cc
=14
8dd
8cc
8b-
8a
4g}
{8g
8a
=15
4b-
8b-
8b-
8b-
8dd
8cc
8b-
=16
4a
4g
4f
8r}
{8g
=17
4a
4cc
2g
=18
2f
4r}
==
!!!AGN: historisches Lied, Krieg gegen Napoleon (1815)
!!!ONB: ESAC (Essen Associative Code) Database: ERK1
!!!AMT: simple quadruple
!!!AIN: vox
!!!EED: Helmut Schaffrath
!!!EEV: 1.0
*-
